X:122
T:Mysterieuse 
C:Jo Privat
N:Tabledited by MikeStangeland
L:1/8
Q:1/4=180
M:3/4
K:G
(3"Em"fgf e4 | eB bg eB | (3"Edim"BcB ^A4 | ^Ag e^c AG | "Am"(3GAG F4 | "B7"Fc BA ^DG | 
"Em"(3FGF E4 | E2 z^d eg | (3fgf ee ee | ef gb ge | (3"D7"efe d2 (3cdc | "G"Bc dg dB | 
(3BcB AG =FG | "B7"AF ^DE FG | "Em"E^D EF GB | ec/B/ AG FE | "B7"^DE FG AB | cB ^AB ^c^d | 
"Em"e^d ef ga | (3bc'b ^ab c'b | "Edim7"^ag f^c ^AG | EG ^A^c eg | "B7"f^d B^A =AG | 
F3z (3^deg | (3"Em"fgf e4 | eB bg eB | (3"Edim7"BcB ^A4 | Ag e^c ^AG | "Am"(3GAG F2 (3efe | 
"B7"^dc BA GF | "Em"EG, B,E GB | e^A Bc ^c^d |: "Em"eE GB e^d | "D7"dD FA dc | 
"G"BB, DG B^A | "F"AA, C=F A^G | "Em"GG, B,E G=F | "B7"FA, B,^D FD | "Em"E^D EF GB | 
e^d ef gb | "Em"e'e gb e'^d' | "D7"d'd fa d'c' | "G"bB dg b^a | "F"aA c=f a^g | 
"Em"gG Be g=f | "B7"fA B^d fd | (3"Em"efe ^de BG | [e2B2G2E2] z2 z2 :| 
K:E
e2 z2 z2 |: "EM"f4 c2 | "E7"[B4G4] G2 | "A"F4 E2 | "Am"F4 G2 | "E"[E6B,6] | "A"[A6E6C6] | 
"E"[E6B,6] |1 [E4B,4] B/c/d/f/ :|2 "E"[E4B,4] (3EF=F |] "G#7"(3GAG =FG =cd | fa gf df | 
(3"C#m"efe d=d ce | GG ce g=g | "F#7"fe c^A F=F | Ee c^A F=F | "B7"ED FA c^A | 
[B4D4] B/c/d/f/ | "E"[e4G4] c2 | "E7"[B4E4] G2 | "A"F4 E2 | "Am"F4 G2 | "E"E2 EF GF | 
"B7"B^A B=c cd | "E"[e6G6] | [e'2b2g2e2] z2 z2 | e2 z2 z2 | 


